svg/black/gnt.svg

<svg xmlns="http://www.w3.org/2000/svg" width="32" height="32" viewBox="0 0 32 32">
  <path fill-rule="evenodd" d="M16,32 C7.163444,32 0,24.836556 0,16 C0,7.163444 7.163444,0 16,0 C24.836556,0 32,7.163444 32,16 C32,24.836556 24.836556,32 16,32 Z M20.4989119,5.28784115 L18.2273102,7.62200639 C17.5189371,7.13516612 16.6922695,6.8734467 15.8316832,6.8734467 C14.6736461,6.8734467 13.5783533,7.33687099 12.7619034,8.17580719 C11.9480348,9.01209106 11.5,10.1301431 11.5,11.3106606 C11.5,12.491178 11.9480348,13.6092301 12.7619034,14.4455139 C13.3743729,15.0748518 14.1426404,15.4982246 14.9752475,15.6668094 L14.9752475,17.7058494 C14.1337053,17.8735831 13.3658346,18.2949216 12.7584706,18.9314951 C11.9480348,19.7642166 11.5,20.8822687 11.5,22.0627861 C11.5,23.2433036 11.9480348,24.3613556 12.7619034,25.1976395 C13.5814931,26.0398021 14.6653971,26.5 15.8316832,26.5 C16.9897202,26.5 18.0850131,26.0365757 18.9014629,25.1976395 C19.718474,24.3581266 20.1633663,23.251758 20.1633663,22.0627861 C20.1633663,20.8738142 19.718474,19.7674456 18.9014629,18.9279328 C18.2889935,18.2985949 17.520726,17.8752221 16.6881188,17.7066373 L16.6881188,15.6675973 C17.529661,15.4998636 18.2975317,15.0785251 18.9048957,14.4419515 C19.718474,13.6060011 20.1633663,12.4996325 20.1633663,11.3106606 C20.1633663,10.4230522 19.9043462,9.56259201 19.4248039,8.83254677 L21.7021315,6.49249787 L20.4989119,5.28784115 Z M15.8316832,19.3449967 C16.5434417,19.3449967 17.1991209,19.6219143 17.6846269,20.1316371 C18.1884828,20.6606251 18.4632249,21.3375903 18.4632249,22.0627861 C18.4632249,22.7921654 18.185615,23.4791076 17.6883532,23.9900649 C17.1991209,24.503658 16.5434417,24.7805755 15.8316832,24.7805755 C15.1310671,24.7805755 14.4696999,24.4983761 13.9750132,23.9900649 C13.4748835,23.4649472 13.2001414,22.787982 13.2001414,22.0627861 C13.2001414,21.3334069 13.4777513,20.6464646 13.9750132,20.1355074 C14.4642454,19.6219143 15.1199246,19.3449967 15.8316832,19.3449967 Z M17.6846269,13.25489 C17.1991209,13.7646128 16.5434417,14.0415304 15.8316832,14.0415304 C15.1310671,14.0415304 14.4696999,13.759331 13.9750132,13.2510197 C13.4748835,12.725902 13.2001414,12.0489368 13.2001414,11.323741 C13.2001414,10.5943618 13.4777513,9.9074195 13.9750132,9.39646226 C14.4642454,8.88286919 15.1199246,8.6059516 15.8316832,8.6059516 C16.5322993,8.6059516 17.1936664,8.88815101 17.6883532,9.39646226 C18.1907246,9.90172759 18.4632249,10.5829779 18.4632249,11.323741 C18.4632249,12.0531203 18.185615,12.7400625 17.6846269,13.25489 Z"/>
</svg>

<svg xmlns="http://www.w3.org/2000/svg" width="32" height="32"><path fill-rule="evenodd" d="M16 32C7.163 32 0 24.837 0 16S7.163 0 16 0s16 7.163 16 16-7.163 16-16 16zm4.499-26.712l-2.272 2.334a4.212 4.212 0 0 0-2.395-.749 4.262 4.262 0 0 0-3.07 1.303A4.474 4.474 0 0 0 11.5 11.31c0 1.18.448 2.298 1.262 3.135a4.274 4.274 0 0 0 2.213 1.22v2.04c-.841.168-1.61.589-2.217 1.225a4.471 4.471 0 0 0-1.258 3.132c0 1.18.448 2.298 1.262 3.135a4.24 4.24 0 0 0 3.07 1.302 4.262 4.262 0 0 0 3.07-1.302 4.451 4.451 0 0 0 1.261-3.135 4.451 4.451 0 0 0-1.262-3.135 4.274 4.274 0 0 0-2.213-1.221v-2.04a4.183 4.183 0 0 0 2.217-1.225 4.448 4.448 0 0 0 1.258-3.131c0-.888-.259-1.748-.738-2.478l2.277-2.34L20.5 5.287zm-4.667 14.057c.711 0 1.367.277 1.853.787.503.529.778 1.206.778 1.93 0 .73-.277 1.417-.775 1.928a2.53 2.53 0 0 1-1.856.79c-.7 0-1.362-.282-1.857-.79a2.771 2.771 0 0 1-.775-1.927c0-.73.278-1.417.775-1.927a2.53 2.53 0 0 1 1.857-.791zm1.853-6.09a2.527 2.527 0 0 1-1.853.787c-.7 0-1.362-.283-1.857-.791a2.771 2.771 0 0 1-.775-1.927c0-.73.278-1.417.775-1.928a2.53 2.53 0 0 1 1.857-.79c.7 0 1.362.282 1.856.79a2.7 2.7 0 0 1 .775 1.928c0 .73-.277 1.416-.778 1.93z"/></svg>
